!!! OTL: Berkowitz568
!!! Chapter: 1
!!! Section: V
!!! Page: 144
!!! Mode: 
!!! Encoder: DJB
**kern
*staff1
*I"Piano
=1-
*clefC3
*k[]
*C:
*M4/4
2A/
2e\
=2
2.b\
4b-\
=3
[1f
=4
2f\]
4r
4g\
=5
2.a-\
4d-\
=6
2c\
2g\
=7
[1a
=8
2a\]
4r
4b-\
=9
2e-\
4r
4a-\
=10
2d-\
4r
4c#\
=11
4f\
4e\
4b\
4b-\
=12
2.cc\
4r
=13
!!linebreak:original
4dd-\
4a-\
4e-\
4r
=14
4d\
4g\
4f#\
4r
=15
4b\
4a\
4e\
4d\
=16
4g\
4f\
4f#\
4r
==
*-
